X: 284
T: Da hudie
L: 1/8
M: 2/4
K: D
z A A A/ B/ [I:setbarnb 1]| 
d> Bd2 | 
f a f e | 
f> e d d | 
z e c B | 
B F A3/ B/ | 
[M:3/4]f> c B/ c/ B/ A/F2 | 
[M:2/4]f> e d/ e/ c/ B/ | 
A B/ A/F2 | 
A d B A | 
f2B d | 
A B/ A/F2 | 
f> a d c/ B/ | 
A B/ A/F2 | 
f a d/ e/ c/ B/ | 
A B/ A/F2 | 
[M:3/4]A> B A B d d | 
[M:2/4]z d f f/ e/ | 
d f c e | 
c e c e | 
e c B d | 
f/ f/ f/ A/ e d/ c/ | 
B/ B/ B/ F/A4 |]

@@@ Tune index: 9158
